src/food-drink/food-fruit/1F34B.svg

<?xml version="1.0" encoding="UTF-8"?>
<svg id="emoji" xmlns="http://www.w3.org/2000/svg" viewBox="0 0 72 72">
  <g id="grid">
    <path d="m68,4v64H4V4h64M72,0H0v72h72V0Z" fill="#b3b3b3"/>
    <path d="m12.923,10.9583h46.1539c1.0621,0,1.9231.861,1.9231,1.9231h0v46.1538c0,1.0621-.861,1.9231-1.9231,1.9231H12.9231c-1.0621,0-1.9231-.861-1.9231-1.9231h0V12.8813c0-1.062.861-1.923,1.923-1.923h0Z" fill="none" stroke="#00a5ff" stroke-miterlimit="10" stroke-width=".1"/>
    <rect x="16" y="4" width="40" height="64" rx="2.2537" ry="2.2537" fill="none" stroke="#00a5ff" stroke-miterlimit="10" stroke-width=".1"/>
    <rect x="4" y="16" width="64" height="40" rx="2.2537" ry="2.2537" fill="none" stroke="#00a5ff" stroke-miterlimit="10" stroke-width=".1"/>
    <circle cx="36" cy="36" r="29" fill="none" stroke="#00a5ff" stroke-miterlimit="10" stroke-width=".1"/>
  </g>
  <g id="color">
    <path d="m16.0302,55.9368c-1.5967-1.6729-1.9362-4.0928-1.0184-6.0812-4.2565-8.3473-1.6753-20.2596,6.9544-28.8894,8.6297-8.6298,20.542-11.211,28.8894-6.9545,2.026-.9351,4.4999-.5649,6.1752,1.1104,1.6753,1.6753,2.0455,4.1493,1.1104,6.1752,4.2661,8.3571,1.6753,20.2596-6.9545,28.8894s-20.5323,11.2207-28.8894,6.9544c-2.026.9351-4.5.5649-6.1753-1.1103-.031-.031-.0616-.0624-.0918-.094" fill="#fcea2b"/>
    <path d="m50.5556,50.0124c-8.631,8.631-20.5347,11.2212-28.8945,6.9571,34.6828,0,36.3371-35.1456,36.3371-35.1456,4.2734,8.3505,1.179,19.5576-7.4426,28.1885Z" fill="#f4aa41"/>
    <path d="m30.4541,59.9883c-3.2764,0-10.4541-2.9883-10.4541-2.9883l-2.5-1.0303h4.1611c13.9883,0,24.1807-5.7363,30.2949-17.0479,4.5869-8.4883,5.0391-17.0591,5.043-17.1445l.1768-3.7549,1.7129,3.3462c4.4639,8.7231,1.4707,20.2446-7.626,29.3511h0c-6,6-13.6895,9.2686-20.8086,9.2686Zm-3.5254-2.3028c7.4531,1.3506,16.2686-1.7285,22.9199-8.3799,7.0859-7.0947,10.2578-16.001,8.5996-23.3125-1.6289,8.8477-7.9189,29.0635-31.5195,31.6924Z" fill="#f4aa41"/>
    <path d="m56.9613,14.9006s1.8262,4.8233.9674,7.234l-4.1007-4.1006,3.1333-3.1334" fill="#f4aa41"/>
    <path d="m16.8259,56.2078s4.3959,1.9419,6.6375.7073l-4.7058-3.3893-1.9317,2.682" fill="#f4aa41"/>
  </g>
  <g id="line">
    <path d="m16.0302,55.9368c-1.5967-1.6729-1.9362-4.0928-1.0184-6.0812-4.2565-8.3473-1.6753-20.2596,6.9544-28.8894,8.6297-8.6298,20.542-11.211,28.8894-6.9545,2.026-.9351,4.4999-.5649,6.1752,1.1104,1.6753,1.6753,2.0455,4.1493,1.1104,6.1752,4.2661,8.3571,1.6753,20.2596-6.9545,28.8894s-20.5323,11.2207-28.8894,6.9544c-2.026.9351-4.5.5649-6.1753-1.1103-.031-.031-.0616-.0624-.0918-.094" fill="none" stroke="#000" stroke-linecap="round" stroke-miterlimit="10" stroke-width="2"/>
    <path d="m16.0302,55.9368c-1.5967-1.6729-1.9362-4.0928-1.0184-6.0812-4.2565-8.3473-1.6753-20.2596,6.9544-28.8894,8.6297-8.6298,20.542-11.211,28.8894-6.9545,2.026-.9351,4.4999-.5649,6.1752,1.1104,1.6753,1.6753,2.0455,4.1493,1.1104,6.1752,4.2661,8.3571,1.6753,20.2596-6.9545,28.8894s-20.5323,11.2207-28.8894,6.9544c-2.026.9351-4.5.5649-6.1753-1.1103-.031-.031-.0616-.0624-.0918-.094" fill="none" stroke="#000" stroke-linecap="round" stroke-miterlimit="10" stroke-width="2"/>
  </g>
</svg>

<svg id="emoji" viewBox="0 0 72 72" xmlns="http://www.w3.org/2000/svg">
  <g id="grid">
    <path fill="#b3b3b3" d="M68,4V68H4V4H68m4-4H0V72H72V0Z"/>
    <path fill="none" stroke="#00a5ff" stroke-miterlimit="10" stroke-width="0.1" d="M12.923,10.9583H59.0769A1.9231,1.9231,0,0,1,61,12.8814V59.0352a1.9231,1.9231,0,0,1-1.9231,1.9231H12.9231A1.9231,1.9231,0,0,1,11,59.0352V12.8813A1.923,1.923,0,0,1,12.923,10.9583Z"/>
    <rect x="16" y="4" rx="2.2537" width="40" height="64" fill="none" stroke="#00a5ff" stroke-miterlimit="10" stroke-width="0.1"/>
    <rect x="16" y="4" rx="2.2537" width="40" height="64" transform="translate(72) rotate(90)" fill="none" stroke="#00a5ff" stroke-miterlimit="10" stroke-width="0.1"/>
    <circle cx="36" cy="36" r="29" fill="none" stroke="#00a5ff" stroke-miterlimit="10" stroke-width="0.1"/>
  </g>
  <g id="color">
    <path fill="#fcea2b" stroke="none" stroke-linecap="round" stroke-miterlimit="10" stroke-width="2" d="M16.0302,55.9368 c-1.5967-1.6729-1.9362-4.0928-1.0184-6.0812c-4.2565-8.3473-1.6753-20.2596,6.9544-28.8894s20.542-11.211,28.8894-6.9545 c2.026-0.9351,4.4999-0.5649,6.1752,1.1104c1.6753,1.6753,2.0455,4.1493,1.1104,6.1752 c4.2661,8.3571,1.6753,20.2596-6.9545,28.8894s-20.5323,11.2207-28.8894,6.9544c-2.026,0.9351-4.5,0.5649-6.1753-1.1103 C16.091,55.9998,16.0604,55.9684,16.0302,55.9368"/>
    <path fill="#f4aa41" stroke="none" d="M50.5556,50.0124c-8.631,8.631-20.5347,11.2212-28.8945,6.9571c34.6828,0,36.3371-35.1456,36.3371-35.1456 C62.2716,30.1744,59.1772,41.3815,50.5556,50.0124z"/>
    <path fill="#f4aa41" stroke="none" d="M30.4541,59.9883C27.1777,59.9883,20,57,20,57l-2.5-1.0303h4.1611 c13.9883,0,24.1807-5.7363,30.2949-17.0479c4.5869-8.4883,5.0391-17.0591,5.043-17.1445l0.1768-3.7549l1.7129,3.3462 c4.4639,8.7231,1.4707,20.2446-7.626,29.3511l0,0C45.2627,56.7197,37.5732,59.9883,30.4541,59.9883z M26.9287,57.6855 c7.4531,1.3506,16.2686-1.7285,22.9199-8.3799c7.0859-7.0947,10.2578-16.001,8.5996-23.3125 C56.8193,34.8408,50.5293,55.0566,26.9287,57.6855z"/>
    <path fill="#f4aa41" stroke="none" d="M56.9613,14.9006c0,0,1.8262,4.8233,0.9674,7.234L53.828,18.034L56.9613,14.9006"/>
    <path fill="#f4aa41" stroke="none" d="M16.1679,57.1214c0,0,5.0539,1.0283,7.2955-0.2063l-4.7058-3.3893L16.1679,57.1214"/>
  </g>
  <g id="hair"/>
  <g id="skin"/>
  <g id="skin-shadow"/>
  <g id="line">
    <path fill="none" stroke="#000000" stroke-linecap="round" stroke-miterlimit="10" stroke-width="2" d="M16.0302,55.9368 c-1.5967-1.6729-1.9362-4.0928-1.0184-6.0812c-4.2565-8.3473-1.6753-20.2596,6.9544-28.8894s20.542-11.211,28.8894-6.9545 c2.026-0.9351,4.4999-0.5649,6.1752,1.1104c1.6753,1.6753,2.0455,4.1493,1.1104,6.1752 c4.2661,8.3571,1.6753,20.2596-6.9545,28.8894s-20.5323,11.2207-28.8894,6.9544c-2.026,0.9351-4.5,0.5649-6.1753-1.1103 C16.091,55.9998,16.0604,55.9684,16.0302,55.9368"/>
    <path fill="none" stroke="#000000" stroke-linecap="round" stroke-miterlimit="10" stroke-width="2" d="M16.0302,55.9368 c-1.5967-1.6729-1.9362-4.0928-1.0184-6.0812c-4.2565-8.3473-1.6753-20.2596,6.9544-28.8894s20.542-11.211,28.8894-6.9545 c2.026-0.9351,4.4999-0.5649,6.1752,1.1104c1.6753,1.6753,2.0455,4.1493,1.1104,6.1752 c4.2661,8.3571,1.6753,20.2596-6.9545,28.8894s-20.5323,11.2207-28.8894,6.9544c-2.026,0.9351-4.5,0.5649-6.1753-1.1103 C16.091,55.9998,16.0604,55.9684,16.0302,55.9368"/>
  </g>
</svg>
